svg/u1f6ac.svg

<svg viewBox="0 0 128 128" xmlns="http://www.w3.org/2000/svg">
  <g>
    <path d="M38.42,78.77c5.97-2.61,28.73-6.41,29.91-13.89c1.91-12.04-17.87-12.89-26.62-13.39 c-10.32-0.58-18.8-4-25.62-10.34C6.29,32.55,2.14,11.67,14.48,3.83c0,0-0.63,10.39,6.98,14.37c18.82,9.84,42.26-0.56,61.93,6.9 c10.99,4.04,17.66,15.67,13.88,26.95c-2.26,10.74-16.98,20.54-31.06,22.71C47.53,77.63,38.42,78.77,38.42,78.77z" opacity="0.5" fill="#BDBDBD"/>
    <path d="M118.59,119.9H18.16V96.78h100.43c0,0,5.41,1.95,5.41,11.56S118.59,119.9,118.59,119.9z" fill="#EEEEEE"/>
    <linearGradient id="SVGID_1_" gradientUnits="userSpaceOnUse" x1="71.0798" x2="71.0798" y1="126.5855" y2="112.2545">
      <stop offset="0" stop-color="#BDBDBD"/>
      <stop offset="1" stop-color="#BDBDBD" stop-opacity="0"/>
    </linearGradient>
    <path d="M118.59,119.9H18.16V96.78h100.43c0,0,5.41,1.95,5.41,11.56S118.59,119.9,118.59,119.9z" fill="url(#SVGID_1_)"/>
    <path d="M118.59,96.78H92.77c0,0,5.41,1.95,5.41,11.56s-5.41,11.56-5.41,11.56h25.82 c0,0,5.41-1.95,5.41-11.56S118.59,96.78,118.59,96.78z" fill="#F19534"/>
    <path d="M123.57,112.62c-0.01-0.06-0.09-0.35-0.58-0.77c-0.49-0.42-1.08-0.67-1.73-0.6 c-0.2,0.02-0.4,0.07-0.55,0.2c-0.26,0.21-0.33,0.57-0.28,0.9c0.05,0.32,0.94,1.86,1.07,5.12 C122.31,116.36,123.1,114.8,123.57,112.62z" fill="#FFCC80"/>
    <path d="M106.16,109.54c0.41,0.4,0.82,0.85,0.9,1.42c0.09,0.64-0.26,1.25-0.65,1.76 c-0.44,0.56-0.94,1.07-1.51,1.5c-0.21,0.16-0.45,0.32-0.71,0.31c-0.51-0.02-0.76-0.63-0.87-1.13c-0.43-1.82-0.76-3.66-1-5.52 c-0.02-0.17-0.04-0.36,0.07-0.49C103.12,106.46,105.75,109.15,106.16,109.54z" fill="#FFCC80"/>
    <path d="M114.26,107.26c0.58-0.34,1.13-0.74,1.55-1.26c0.42-0.53,0.68-1.19,0.61-1.86 c-0.02-0.19-0.08-0.4-0.24-0.5c-0.17-0.1-0.38-0.05-0.57,0c-1.27,0.35-2.52,0.77-3.74,1.27c-0.17,0.07-0.35,0.15-0.48,0.29 c-0.13,0.14-0.19,0.34-0.25,0.52c-0.14,0.51-0.21,1.03-0.23,1.55C110.84,109.4,113.34,107.81,114.26,107.26z" fill="#FFCC80"/>
    <path d="M107.21,100.66c-0.05,0.35-0.41,0.57-0.73,0.72c-0.84,0.37-1.76,0.61-2.67,0.55 c-1.21-0.07-4.43-2.36-1.96-2.63C102.75,99.2,107.35,99.63,107.21,100.66z" fill="#FFCC80"/>
    <path d="M110.69,113.6c0.45-0.32,1.2-0.06,1.65,0.28c1.76,1.34,2.19,0.84,3.4,0.42 c1.34-0.47,1.24,0.48,0.72,1.25c-0.59,0.88-3.01,2.49-4.35,2.18C111.28,117.55,110.21,113.95,110.69,113.6z" fill="#FFCC80"/>
    <path d="M124,107.9c-0.06-3.73-1-6.42-2.02-7.96c-0.2,0.03-0.4,0.11-0.6,0.24 c-0.51,0.35-1.46,2.66-1.35,3.13C120.24,104.24,123.03,106.9,124,107.9z" fill="#FFCC80"/>
    <path d="M112.05,98.72c1.06,1.21,1.85,0.19,2.06-0.27c0.24-0.53,0.27-1.11,0.18-1.67h-4.49 C110.46,97.28,111.13,97.66,112.05,98.72z" fill="#FFCC80"/>
    <path d="M99.53,117.67c0.87-0.61,2.15-0.8,2.86,0.01c0.67,0.76,1.27,1.65,2.03,2.22l-6.36,0 C98.6,118.84,99.14,117.94,99.53,117.67z" fill="#FFCC80"/>
    <path d="M24.56,104.89c-0.6-0.82-1.71-1.21-2.15-2.12c-0.57-1.17,0.23-2.62-0.21-3.85 c-0.45-1.28-1.97-1.75-3.29-2.05c-0.82-0.19-1.81-0.18-2.61,0.08c-0.31,0.1-0.61,0.24-0.93,0.34c-1.28,0.41-2.6-0.01-3.91,0.15 c-0.81,0.1-1.64,0.39-2.14,1.03c-0.27,0.35-0.43,0.78-0.7,1.13c-0.51,0.63-1.36,0.72-2,1.18c-0.61,0.44-1.29,0.87-1.6,1.59 c-0.5,1.16,0.18,2.5-0.05,3.74c-0.13,0.69-0.52,1.29-0.75,1.95c-0.03,0.09-0.06,0.18-0.08,0.27c-0.29,1.09-0.12,2.3,0.47,3.26 c0.54,0.86,1.39,1.53,1.73,2.49c0.3,0.85-0.02,1.78,0.29,2.62c0.28,0.76,1.09,1.17,1.85,1.3c1.52,0.25,3.01,0.47,4.51,0.9 c0.86,0.25,1.67,0.66,2.51,0.95c1.78,0.62,4.07,0.29,5.74-0.57c0.67-0.35,1.23-1,1.25-1.75c0.01-0.22-0.03-0.45,0.04-0.66 c0.08-0.25,0.29-0.42,0.46-0.62c0.59-0.73,0.5-1.8,0.29-2.72c-0.21-0.92-0.5-1.89-0.2-2.78c0.18-0.55,0.56-1,0.89-1.48 c0.46-0.64,0.84-1.35,1-2.12c0.02-0.09,0.03-0.18,0.04-0.28C25.1,106.18,24.97,105.45,24.56,104.89z" fill="#607D8B"/>
    <path d="M7.74,115.15c0.23,1.79,3.96,2.86,3.61,0.36c-0.22-1.51-1.13-1.79-1.57-2.66 c-0.37-0.53-0.49-0.95-0.12-1.5c0.47-0.97,0.8-2.41,0.04-3.17c-1.48-1.36-3.78,0.26-2.9,2.11c0.37,0.79,1.66,0.95,1.96,1.78 C9.17,113.27,7.43,113.87,7.74,115.15z" fill="#F44336"/>
    <path d="M14.32,100.44c0.33,0.8,0.07,2.02,0.31,2.76c0.46,1.44,2.02,1.2,2.75,3.29 c0.45,1.29,0.65,3.28-0.79,4.73c-0.45,0.45-1.21,0.63-1.53,0.37c-0.93-0.69-0.94-1.76-0.61-3.25c0.07-0.31-0.15-0.33-0.24-0.45 c-0.68-0.39-1.22-0.97-1.08-1.81c0.21-1.26,1.41-1.8,1.05-2.87c-0.23-0.7-0.7-1.19-1.54-1.16c-0.62,0.02-0.52,0.57-1.35,0.94 c-0.58,0.26-1.36-0.64-1.97-0.4s0.07,2.25-1.24,2.79c-0.5,0.21-1-0.29-1.22-0.74c-0.37-0.7-0.13-1.93,0.62-2.33 c0.63-0.35,1.16,0.25,1.77-0.15c0.61-0.4,0.47-2.11,1.24-2.82C12.02,98.1,13.81,98.8,14.32,100.44z" fill="#F44336"/>
    <path d="M16.32,79.77c7.03-9.07,18.67-11.58,28.99-15.12c3.79-1.3,10.04-3.62,9.08-7.71 c-1.41-6.02-13.08-5.23-17.65-6.04c-10.75-1.9-20.2-6.76-25.75-16.16c-4.61-7.23-7.59-23.62,3.49-30.9c0,0-6.94,9.97,6.78,22.71 C36.6,40.8,62.11,30.32,79.45,41.52c20.72,14.59,2.35,30.82-16.39,33.72c-8.43,1.31-16.89,2.42-25.3,3.63 c-10.92,1.56-19.36,3.92-25.49,13.68C11.69,87.92,13.42,83.47,16.32,79.77z" opacity="0.5" fill="#BDBDBD"/>
    <path d="M19.87,97.96c0.82,0.44,1.61,1.26,1.45,2.17c-0.07,0.42-0.33,0.77-0.49,1.17 c-0.4,0.99-0.09,2.22,0.72,2.91c0.71,0.59,1.76,0.84,2.14,1.68c0.37,0.81-0.1,1.76-0.7,2.43c-0.79,0.89-2.08,1.91-2,3.23 c0.04,0.65,0.33,1.25,0.67,1.8c0.16,0.25,0.33,0.5,0.41,0.79c0.08,0.29,0.06,0.62-0.14,0.84c-0.16,0.17-0.4,0.24-0.6,0.37 c-0.49,0.33-0.62,0.99-0.64,1.58c-0.02,0.55,0.09,1.6-0.3,2.05c-0.33,0.39-2.1,0.92-2.6,0.92c1.3,0,3.77,0.53,4.42-0.99 c0.13-0.3,0.16-0.63,0.29-0.92c0.34-0.8,1.24-1.18,1.88-1.76c0.6-0.55,0.99-1.33,1.08-2.14c0.06-0.58-0.03-1.17-0.01-1.76 c0.04-1.63,1.31-1.81,2.25-2.89c0.45-0.51,0.71-1.17,0.78-1.85c0.06-0.51,0.02-1.03-0.12-1.53c-0.32-1.15-1.11-2.13-2.05-2.86 c-0.9-0.7-2.07-1.36-2.16-2.5c-0.03-0.36,0.07-0.72,0.09-1.09c0.08-1.7-1.66-2.03-2.7-2.46c-1.04-0.43-3.85-0.38-3.85-0.38 C18.32,97.3,19.14,97.57,19.87,97.96z" fill="#424242"/>
    <linearGradient id="SVGID_2_" gradientUnits="userSpaceOnUse" x1="108.3874" x2="108.3874" y1="126.5854" y2="112.2545">
      <stop offset="0" stop-color="#A15D38"/>
      <stop offset="1" stop-color="#A15D38" stop-opacity="0"/>
    </linearGradient>
    <path d="M118.59,96.78H92.77c0,0,5.41,1.95,5.41,11.56s-5.41,11.56-5.41,11.56h25.82 c0,0,5.41-1.95,5.41-11.56S118.59,96.78,118.59,96.78z" fill="url(#SVGID_2_)"/>
  </g>
</svg>

<svg viewBox="0 0 128 128" xmlns="http://www.w3.org/2000/svg">
  <defs>
    <linearGradient id="SVGID_1_" gradientUnits="userSpaceOnUse" x1="71.0798" x2="71.0798" y1="126.5855" y2="112.2545">
      <stop offset="0" stop-color="#BDBDBD"/>
      <stop offset="1" stop-color="#BDBDBD" stop-opacity="0"/>
    </linearGradient>
    <linearGradient id="SVGID_2_" gradientUnits="userSpaceOnUse" x1="108.3874" x2="108.3874" y1="126.5854" y2="112.2545">
      <stop offset="0" stop-color="#A15D38"/>
      <stop offset="1" stop-color="#A15D38" stop-opacity="0"/>
    </linearGradient>
  </defs>
  <path d="M38.42,78.77 C44.39,76.16 67.15,72.36 68.33,64.88 C70.24,52.84 50.46,51.99 41.71,51.49 C31.39,50.91 22.91,47.49 16.09,41.15 C6.29,32.55 2.14,11.67 14.48,3.83 C14.48,3.83 13.85,14.22 21.46,18.2 C40.28,28.04 63.72,17.64 83.39,25.1 C94.38,29.14 101.05,40.77 97.27,52.05 C95.01,62.79 80.29,72.59 66.21,74.76 C47.53,77.63 38.42,78.77 38.42,78.77 Z" fill="#BDBDBD" opacity="0.5"/>
  <path d="M118.59,119.9 L18.16,119.9 L18.16,96.78 L118.59,96.78 C118.59,96.78 124,98.73 124,108.34 C124,117.95 118.59,119.9 118.59,119.9 Z" fill="#EEEEEE"/>
  <path d="M118.59,119.9 L18.16,119.9 L18.16,96.78 L118.59,96.78 C118.59,96.78 124,98.73 124,108.34 C124,117.95 118.59,119.9 118.59,119.9 Z" fill="url(#SVGID_1_)"/>
  <path d="M118.59,96.78 L92.77,96.78 C92.77,96.78 98.18,98.73 98.18,108.34 C98.18,117.95 92.77,119.9 92.77,119.9 L118.59,119.9 C118.59,119.9 124,117.95 124,108.34 C124,98.73 118.59,96.78 118.59,96.78 Z" fill="#F19534"/>
  <path d="M123.57,112.62 C123.56,112.56 123.48,112.27 122.99,111.85 C122.5,111.43 121.91,111.18 121.26,111.25 C121.06,111.27 120.86,111.32 120.71,111.45 C120.45,111.66 120.38,112.02 120.43,112.35 C120.48,112.67 121.37,114.21 121.5,117.47 C122.31,116.36 123.1,114.8 123.57,112.62 Z" fill="#FFCC80"/>
  <path d="M106.16,109.54 C106.57,109.94 106.98,110.39 107.06,110.96 C107.15,111.6 106.8,112.21 106.41,112.72 C105.97,113.28 105.47,113.79 104.9,114.22 C104.69,114.38 104.45,114.54 104.19,114.53 C103.68,114.51 103.43,113.9 103.32,113.4 C102.89,111.58 102.56,109.74 102.32,107.88 C102.3,107.71 102.28,107.52 102.39,107.39 C103.12,106.46 105.75,109.15 106.16,109.54 Z" fill="#FFCC80"/>
  <path d="M114.26,107.26 C114.84,106.92 115.39,106.52 115.81,106 C116.23,105.47 116.49,104.81 116.42,104.14 C116.4,103.95 116.34,103.74 116.18,103.64 C116.01,103.54 115.8,103.59 115.61,103.64 C114.34,103.99 113.09,104.41 111.87,104.91 C111.7,104.98 111.52,105.06 111.39,105.2 C111.26,105.34 111.2,105.54 111.14,105.72 C111,106.23 110.93,106.75 110.91,107.27 C110.84,109.4 113.34,107.81 114.26,107.26 Z" fill="#FFCC80"/>
  <path d="M107.21,100.66 C107.16,101.01 106.8,101.23 106.48,101.38 C105.64,101.75 104.72,101.99 103.81,101.93 C102.6,101.86 99.38,99.57 101.85,99.3 C102.75,99.2 107.35,99.63 107.21,100.66 Z" fill="#FFCC80"/>
  <path d="M110.69,113.6 C111.14,113.28 111.89,113.54 112.34,113.88 C114.1,115.22 114.53,114.72 115.74,114.3 C117.08,113.83 116.98,114.78 116.46,115.55 C115.87,116.43 113.45,118.04 112.11,117.73 C111.28,117.55 110.21,113.95 110.69,113.6 Z" fill="#FFCC80"/>
  <path d="M124,107.9 C123.94,104.17 123,101.48 121.98,99.94 C121.78,99.97 121.58,100.05 121.38,100.18 C120.87,100.53 119.92,102.84 120.03,103.31 C120.24,104.24 123.03,106.9 124,107.9 Z" fill="#FFCC80"/>
  <path d="M112.05,98.72 C113.11,99.93 113.9,98.91 114.11,98.45 C114.35,97.92 114.38,97.34 114.29,96.78 L109.8,96.78 C110.46,97.28 111.13,97.66 112.05,98.72 Z" fill="#FFCC80"/>
  <path d="M99.53,117.67 C100.4,117.06 101.68,116.87 102.39,117.68 C103.06,118.44 103.66,119.33 104.42,119.9 L98.06,119.9 C98.6,118.84 99.14,117.94 99.53,117.67 Z" fill="#FFCC80"/>
  <path d="M24.56,104.89 C23.96,104.07 22.85,103.68 22.41,102.77 C21.84,101.6 22.64,100.15 22.2,98.92 C21.75,97.64 20.23,97.17 18.91,96.87 C18.09,96.68 17.1,96.69 16.3,96.95 C15.99,97.05 15.69,97.19 15.37,97.29 C14.09,97.7 12.77,97.28 11.46,97.44 C10.65,97.54 9.82,97.83 9.32,98.47 C9.05,98.82 8.89,99.25 8.62,99.6 C8.11,100.23 7.26,100.32 6.62,100.78 C6.01,101.22 5.33,101.65 5.02,102.37 C4.52,103.53 5.2,104.87 4.97,106.11 C4.84,106.8 4.45,107.4 4.22,108.06 C4.19,108.15 4.16,108.24 4.14,108.33 C3.85,109.42 4.02,110.63 4.61,111.59 C5.15,112.45 6,113.12 6.34,114.08 C6.64,114.93 6.32,115.86 6.63,116.7 C6.91,117.46 7.72,117.87 8.48,118 C10,118.25 11.49,118.47 12.99,118.9 C13.85,119.15 14.66,119.56 15.5,119.85 C17.28,120.47 19.57,120.14 21.24,119.28 C21.91,118.93 22.47,118.28 22.49,117.53 C22.5,117.31 22.46,117.08 22.53,116.87 C22.61,116.62 22.82,116.45 22.99,116.25 C23.58,115.52 23.49,114.45 23.28,113.53 C23.07,112.61 22.78,111.64 23.08,110.75 C23.26,110.2 23.64,109.75 23.97,109.27 C24.43,108.63 24.81,107.92 24.97,107.15 C24.99,107.06 25,106.97 25.01,106.87 C25.1,106.18 24.97,105.45 24.56,104.89 Z" fill="#607D8B"/>
  <path d="M7.74,115.15 C7.97,116.94 11.7,118.01 11.35,115.51 C11.13,114 10.22,113.72 9.78,112.85 C9.41,112.32 9.29,111.9 9.66,111.35 C10.13,110.38 10.46,108.94 9.7,108.18 C8.22,106.82 5.92,108.44 6.8,110.29 C7.17,111.08 8.46,111.24 8.76,112.07 C9.17,113.27 7.43,113.87 7.74,115.15 Z" fill="#F44336"/>
  <path d="M14.32,100.44 C14.65,101.24 14.39,102.46 14.63,103.2 C15.09,104.64 16.65,104.4 17.38,106.49 C17.83,107.78 18.03,109.77 16.59,111.22 C16.14,111.67 15.38,111.85 15.06,111.59 C14.13,110.9 14.12,109.83 14.45,108.34 C14.52,108.03 14.3,108.01 14.21,107.89 C13.53,107.5 12.99,106.92 13.13,106.08 C13.34,104.82 14.54,104.28 14.18,103.21 C13.95,102.51 13.48,102.02 12.64,102.05 C12.02,102.07 12.12,102.62 11.29,102.99 C10.71,103.25 9.93,102.35 9.32,102.59 C8.71,102.83 9.39,104.84 8.08,105.38 C7.58,105.59 7.08,105.09 6.86,104.64 C6.49,103.94 6.73,102.71 7.48,102.31 C8.11,101.96 8.64,102.56 9.25,102.16 C9.86,101.76 9.72,100.05 10.49,99.34 C12.02,98.1 13.81,98.8 14.32,100.44 Z" fill="#F44336"/>
  <path d="M16.32,79.77 C23.35,70.7 34.99,68.19 45.31,64.65 C49.1,63.35 55.35,61.03 54.39,56.94 C52.98,50.92 41.31,51.71 36.74,50.9 C25.99,49 16.54,44.14 10.99,34.74 C6.38,27.51 3.4,11.12 14.48,3.84 C14.48,3.84 7.54,13.81 21.26,26.55 C36.6,40.8 62.11,30.32 79.45,41.52 C100.17,56.11 81.8,72.34 63.06,75.24 C54.63,76.55 46.17,77.66 37.76,78.87 C26.84,80.43 18.4,82.79 12.27,92.55 C11.69,87.92 13.42,83.47 16.32,79.77 Z" fill="#BDBDBD" opacity="0.5"/>
  <path d="M19.87,97.96 C20.69,98.4 21.48,99.22 21.32,100.13 C21.25,100.55 20.99,100.9 20.83,101.3 C20.43,102.29 20.74,103.52 21.55,104.21 C22.26,104.8 23.31,105.05 23.69,105.89 C24.06,106.7 23.59,107.65 22.99,108.32 C22.2,109.21 20.91,110.23 20.99,111.55 C21.03,112.2 21.32,112.8 21.66,113.35 C21.82,113.6 21.99,113.85 22.07,114.14 C22.15,114.43 22.13,114.76 21.93,114.98 C21.77,115.15 21.53,115.22 21.33,115.35 C20.84,115.68 20.71,116.34 20.69,116.93 C20.67,117.48 20.78,118.53 20.39,118.98 C20.06,119.37 18.29,119.9 17.79,119.9 C19.09,119.9 21.56,120.43 22.21,118.91 C22.34,118.61 22.37,118.28 22.5,117.99 C22.84,117.19 23.74,116.81 24.38,116.23 C24.98,115.68 25.37,114.9 25.46,114.09 C25.52,113.51 25.43,112.92 25.45,112.33 C25.49,110.7 26.76,110.52 27.7,109.44 C28.15,108.93 28.41,108.27 28.48,107.59 C28.54,107.08 28.5,106.56 28.36,106.06 C28.04,104.91 27.25,103.93 26.31,103.2 C25.41,102.5 24.24,101.84 24.15,100.7 C24.12,100.34 24.22,99.98 24.24,99.61 C24.32,97.91 22.58,97.58 21.54,97.15 C20.5,96.72 17.69,96.77 17.69,96.77 C18.32,97.3 19.14,97.57 19.87,97.96 Z" fill="#424242"/>
  <path d="M118.59,96.78 L92.77,96.78 C92.77,96.78 98.18,98.73 98.18,108.34 C98.18,117.95 92.77,119.9 92.77,119.9 L118.59,119.9 C118.59,119.9 124,117.95 124,108.34 C124,98.73 118.59,96.78 118.59,96.78 Z" fill="url(#SVGID_2_)"/>
</svg>
